src/assets/icons/cloud-stack.svg

<svg fill="none" height="148" viewBox="0 0 374 148" width="374" xmlns="http://www.w3.org/2000/svg" xmlns:xlink="http://www.w3.org/1999/xlink"><mask id="a" height="148" maskUnits="userSpaceOnUse" width="374" x="0" y="0"><rect fill="#f5f5f5" height="146.389" rx="10" width="373.577" x=".422729" y=".908447"/></mask><g mask="url(#a)"><path d="m.422729 10.9084c0-5.5228 4.477151-9.999953 9.999971-9.999953h354.5283c5.522 0 10 4.477153 10 9.999953v126.3896c0 5.522-4.478 10-10 10h-354.5283c-5.52283 0-9.999971-4.478-9.999971-10z" fill="#f5f5f5"/><g fill="#000"><path d="m51.8863 60.6936c-2.3836 0-4.8034.9452-5.2066 1.4621-.1051.2139-.349 1.9425.2294 1.9425.1928 0 .2812.0341.8421-.2333 2.1031-.8377 3.4357-.818 3.6285-.818 2.366-.2317 3.7327 1.4089 3.5223 3.5298v1.2463c-1.998-.4813-3.1395-.4978-3.7003-.4978-2.9094-.1783-5.5968 1.3817-5.5968 4.8109 0 3.7607 3.3007 4.565 4.5801 4.5115 1.9104.0178 3.7337-.8556 4.943-2.3706.9639 2.1922 1.5776 2.0469 1.5951 2.0469.1753 0 .3151-.071.4553-.1602l.9996-.7136c.1752-.1069.3145-.2839.332-.4978-.0175-.5169-.9293-1.3189-.8592-3.1191v-5.5593c.1052-1.5328-.3835-3.0328-1.4001-4.1913-1.2093-1.0338-2.8046-1.5316-4.3644-1.389zm33.9538 0c-3.5053 0-5.5193 2.2271-5.4667 4.4907 0 3.1012 3.0828 4.0843 3.4333 4.1913 2.962.9446 3.3662.9788 4.1899 1.6918.7011.7307.613 2.1576-.421 2.7814-.298.1782-1.5788.9611-4.4706.3551-.964-.1961-1.4706-.4272-2.2593-.7659-.2103-.0713-.7017-.1965-.7017.463v.8738c0 .4099.2447.7825.6127.9608 1.8403.9446 4.0488.9816 4.522.9816.0701 0 4.1.0022 5.4495-2.764.2787-.5703 1.0004-2.6526-.3491-4.4349-1.1217-1.3368-2.0858-1.4795-4.9601-2.3707-.2454-.0713-2.3658-.6259-2.3482-2.1409-.1052-1.9427 2.4895-2.0477 3.0328-2.012 2.1908-.0357 3.2757.7994 3.8716.8528.2629 0 .3868-.1587.3868-.5152v-.8215c.0175-.1961-.0523-.3896-.1575-.55-.701-.9269-3.383-1.2672-4.3644-1.2672zm-26.6044.4456c-.1928.0357-.3329.2321-.2978.4282.035.2317.0698.4645.1574.6962l3.9263 13.1691c.0877.4278.3656.8928.9791.8215h1.4377c.8763.0892.9991-.7672 1.0166-.8563l2.5776-10.9795 2.6118 10.9969c.0176.0891.1408.9455.9996.8564h1.4548c.631.0712.929-.3938 1.0167-.8216 4.4166-14.4547 4.1171-13.4721 4.1522-13.6147.0701-.7485-.3509-.6966-.421-.6788h-1.561c-.7887-.0891-.9439.6433-.979.8216l-2.9096 11.425-2.629-11.425c-.1227-.8734-.8243-.8394-.9995-.8216h-1.3487c-.7712-.0713-.9641.5542-1.0167.8216l-2.6118 11.2649-2.8035-11.2649c-.0701-.3565-.2989-.9103-.9825-.839zm-7.4555 8.2538c1.2619.0178 2.3511.2116 3.1047.3898 0 .8912.0319 1.3911-.1609 2.1932-.2453.8555-1.3298 2.408-3.8886 2.4437-1.4722.0713-2.4359-1.107-2.3483-2.4437-.0876-2.1389 2.0838-2.6722 3.2931-2.583zm39.4649 10.8924c-1.6358.0232-3.5667.3958-5.0319 1.4412-.4522.319-.373.762.1301.7032 1.6474-.2014 5.3144-.6536 5.9698.1984.6573.8519-.7267 4.3668-1.3384 5.9388-.1893.4687.2109.6628.6333.3063 2.7411-2.3348 3.4533-7.2294 2.8925-7.9335-.2813-.352-1.6195-.6776-3.2554-.6544zm-48.7655 1.7823c-.3822.0535-.5468.5461-.1472.9364 6.8651 6.5483 15.9364 9.7541 26.0087 9.7541 7.1841 0 15.5241-2.3837 21.2815-6.8752.9517-.7468.141-1.8658-.8353-1.4237-6.4549 2.8962-13.4658 4.2922-19.8471 4.2922-9.4572 0-18.6124-2.0079-26.019-6.5689-.1621-.0998-.3142-.1327-.4416-.1149z"/><path d="m131.305 55.0913c-1.522 0-2.833.8429-3.594 2.0794l-4.842 8.674 4.159 7.3076 6-10.4564h22.636l-3.06-5.5252c-.761-1.2365-2.072-2.0794-3.594-2.0794zm2.763 9.5058-5.971 10.4564 4.842 8.466 1.129 1.9903h12.09l6.06-10.4563-6.06-10.4564zm14.348 0 6 10.4564-.297.4752-11.199 19.4869h6.09c1.522 0 2.833-.8429 3.594-2.0794l8.853-15.6845c.761-1.3294.761-3.0411 0-4.2776l-4.664-8.377zm-26.705 3.2379-2.941 5.1391c-.761 1.3293-.761 2.9482 0 4.2776l8.852 15.6845c.761 1.3293 2.072 2.0794 3.594 2.0794h9.417l4.456-7.6046h-12.061l-1.604-2.8518-.119-.1782-5.406-9.3275zm18.447 2.4656c2.662 0 4.753 2.0905 4.753 4.7529 0 2.6623-2.091 4.7528-4.753 4.7528-2.663 0-4.753-2.0905-4.753-4.7528 0-2.6624 2.09-4.7529 4.753-4.7529z"/><path d="m233.988 90.1044-18.172-31.7482-7.089 14.2773 12.481 14.4647-23.164 2.6304zm-35.844-23.7643-12.081 20.3834 10.284-1.0337 18.071-32.9691z"/><path clip-rule="evenodd" d="m293.791 69.328c-.568 0-1.515.1893-1.949.9468l-6.038 10.4601 3.286.0223 4.69-8.1208 2.228 3.832-4.278-.0111 1.671 2.8406 4.256.0223.802 1.4147h3.297l-6.06-10.4935c-.613-.958-1.415-.9134-1.905-.9134zm13.446 0c-3.03 0-5.481 2.5509-5.481 5.7034s2.451 5.7035 5.481 5.7035l5.926.0446 2.852-2.8963-8.812.0222c-1.604-.0222-2.562-1.5484-2.595-2.8628-.045-1.4148 1.025-2.8963 2.618-2.9186l5.937.078 2.852-2.874zm-48.257.0222c-3.019 0-5.703 2.707-5.703 5.8595s2.684 5.5475 5.703 5.5475h5.704c3.018 0 5.703-2.551 5.703-5.7035s-2.685-5.7035-5.703-5.7035zm14.259 0v11.407h2.851v-8.5552h3.654c1.081-.0112 2.05.3899 2.05 1.4147 0 1.0137-.947 1.4481-1.916 1.4481l-3.788-.0111 4.835 5.7258 3.721-.0223-2.919-3.431s2.896-.8466 2.919-3.7541c.011-2.4061-1.448-4.1996-3.899-4.2219zm48.479 0h-2.852v10.3153c0 .2785.101.557.312.7686.19.2005.468.3231.758.3231l7.486.0223 2.851-2.8741h-8.555zm13.691.0223c-3.03 0-5.481 2.551-5.481 5.7035s2.451 5.7035 5.481 5.7035h6.271l2.852-2.8518h-9.168c-.69.078-1.994-.5013-2.317-1.7266l8.633.1002 2.819-2.5955s-8.489.0446-11.407.0557c.267-1.3145 2.272-1.5372 2.272-1.5372h6.316l2.852-2.8518zm-76.429 2.8295h5.704c.568.0111 2.595.8689 2.584 2.8406-.011 2.1388-1.86 2.8517-2.584 2.8628h-5.704c-1.303-.0111-2.629-1.5149-2.629-2.8071 0-1.6041 1.515-2.9186 2.629-2.8963z" fill-rule="evenodd"/></g></g></svg>

<svg width="374" height="148" viewBox="0 0 374 148" fill="none" xmlns="http://www.w3.org/2000/svg">
<mask id="mask0_114_216" style="mask-type:alpha" maskUnits="userSpaceOnUse" x="0" y="0" width="374" height="148">
<rect x="0.422729" y="0.908447" width="373.577" height="146.389" rx="10" fill="#F5F5F5"/>
</mask>
<g mask="url(#mask0_114_216)">
<path d="M0.422729 10.9084C0.422729 5.3856 4.89988 0.908447 10.4227 0.908447H364.951C370.473 0.908447 374.951 5.3856 374.951 10.9084V137.298C374.951 142.82 370.473 147.298 364.951 147.298H10.4227C4.89987 147.298 0.422729 142.82 0.422729 137.298V10.9084Z" fill="#F5F5F5"/>
<path d="M51.8863 60.6936C49.5027 60.6936 47.0829 61.6388 46.6797 62.1557C46.5746 62.3696 46.3307 64.0982 46.9091 64.0982C47.1019 64.0982 47.1903 64.1323 47.7512 63.8649C49.8543 63.0272 51.1869 63.0469 51.3797 63.0469C53.7457 62.8152 55.1124 64.4558 54.902 66.5767V67.823C52.904 67.3417 51.7625 67.3252 51.2017 67.3252C48.2923 67.1469 45.6049 68.7069 45.6049 72.1361C45.6049 75.8968 48.9056 76.7011 50.185 76.6476C52.0954 76.6654 53.9187 75.792 55.128 74.277C56.0919 76.4692 56.7056 76.3239 56.7231 76.3239C56.8984 76.3239 57.0382 76.2529 57.1784 76.1637L58.178 75.4501C58.3532 75.3432 58.4925 75.1662 58.51 74.9523C58.4925 74.4354 57.5807 73.6334 57.6508 71.8332V66.2739C57.756 64.7411 57.2673 63.2411 56.2507 62.0826C55.0414 61.0488 53.4461 60.551 51.8863 60.6936ZM85.8401 60.6936C82.3348 60.6936 80.3208 62.9207 80.3734 65.1843C80.3734 68.2855 83.4562 69.2686 83.8067 69.3756C86.7687 70.3202 87.1729 70.3544 87.9966 71.0674C88.6977 71.7981 88.6096 73.225 87.5756 73.8488C87.2776 74.027 85.9968 74.8099 83.105 74.2039C82.141 74.0078 81.6344 73.7767 80.8457 73.438C80.6354 73.3667 80.144 73.2415 80.144 73.901V74.7748C80.144 75.1847 80.3887 75.5573 80.7567 75.7356C82.597 76.6802 84.8055 76.7172 85.2787 76.7172C85.3488 76.7172 89.3787 76.7194 90.7282 73.9532C91.0069 73.3829 91.7286 71.3006 90.3791 69.5183C89.2574 68.1815 88.2933 68.0388 85.419 67.1476C85.1736 67.0763 83.0532 66.5217 83.0708 65.0067C82.9656 63.064 85.5603 62.959 86.1036 62.9947C88.2944 62.959 89.3793 63.7941 89.9752 63.8475C90.2381 63.8475 90.362 63.6888 90.362 63.3323V62.5108C90.3795 62.3147 90.3097 62.1212 90.2045 61.9608C89.5035 61.0339 86.8215 60.6936 85.8401 60.6936ZM59.2357 61.1392C59.0429 61.1749 58.9028 61.3713 58.9379 61.5674C58.9729 61.7991 59.0077 62.0319 59.0953 62.2636L63.0216 75.4327C63.1093 75.8605 63.3872 76.3255 64.0007 76.2542H65.4384C66.3147 76.3434 66.4375 75.487 66.455 75.3979L69.0326 64.4184L71.6444 75.4153C71.662 75.5044 71.7852 76.3608 72.644 76.2717H74.0988C74.7298 76.3429 75.0278 75.8779 75.1155 75.4501C79.5321 60.9954 79.2326 61.978 79.2677 61.8354C79.3378 61.0869 78.9168 61.1388 78.8467 61.1566H77.2857C76.497 61.0675 76.3418 61.7999 76.3067 61.9782L73.3971 73.4032L70.7681 61.9782C70.6454 61.1048 69.9438 61.1388 69.7686 61.1566H68.4199C67.6487 61.0853 67.4558 61.7108 67.4032 61.9782L64.7914 73.2431L61.9879 61.9782C61.9178 61.6217 61.689 61.0679 61.0054 61.1392H59.2357ZM51.7802 69.393C53.0421 69.4108 54.1313 69.6046 54.8849 69.7828C54.8849 70.674 54.9168 71.1739 54.724 71.976C54.4787 72.8315 53.3942 74.384 50.8354 74.4197C49.3632 74.491 48.3995 73.3127 48.4871 71.976C48.3995 69.8371 50.5709 69.3038 51.7802 69.393ZM91.2451 80.2854C89.6093 80.3086 87.6784 80.6812 86.2132 81.7266C85.761 82.0456 85.8402 82.4886 86.3433 82.4298C87.9907 82.2284 91.6577 81.7762 92.3131 82.6282C92.9704 83.4801 91.5864 86.995 90.9747 88.567C90.7854 89.0357 91.1856 89.2298 91.608 88.8733C94.3491 86.5385 95.0613 81.6439 94.5005 80.9398C94.2192 80.5878 92.881 80.2622 91.2451 80.2854ZM42.4796 82.0677C42.0974 82.1212 41.9328 82.6138 42.3324 83.0041C49.1975 89.5524 58.2688 92.7582 68.3411 92.7582C75.5252 92.7582 83.8652 90.3745 89.6226 85.883C90.5743 85.1362 89.7636 84.0172 88.7873 84.4593C82.3324 87.3555 75.3215 88.7515 68.9402 88.7515C59.483 88.7515 50.3278 86.7436 42.9212 82.1826C42.7591 82.0828 42.607 82.0499 42.4796 82.0677Z" fill="black"/>
<path d="M131.305 55.0913C129.783 55.0913 128.472 55.9342 127.711 57.1707L122.869 65.8447L127.028 73.1523L133.028 62.6959H155.664L152.604 57.1707C151.843 55.9342 150.532 55.0913 149.01 55.0913H131.305ZM134.068 64.5971L128.097 75.0535L132.939 83.5195L134.068 85.5098H146.158L152.218 75.0535L146.158 64.5971H134.068ZM148.416 64.5971L154.416 75.0535L154.119 75.5287L142.92 95.0156H149.01C150.532 95.0156 151.843 94.1727 152.604 92.9362L161.457 77.2517C162.218 75.9223 162.218 74.2106 161.457 72.9741L156.793 64.5971H148.416ZM121.711 67.835L118.77 72.9741C118.009 74.3034 118.009 75.9223 118.77 77.2517L127.622 92.9362C128.383 94.2655 129.694 95.0156 131.216 95.0156H140.633L145.089 87.411H133.028L131.424 84.5592L131.305 84.381L125.899 75.0535L121.711 67.835ZM140.158 70.3006C142.82 70.3006 144.911 72.3911 144.911 75.0535C144.911 77.7158 142.82 79.8063 140.158 79.8063C137.495 79.8063 135.405 77.7158 135.405 75.0535C135.405 72.3911 137.495 70.3006 140.158 70.3006Z" fill="black"/>
<path d="M233.988 90.1044L215.816 58.3562L208.727 72.6335L221.208 87.0982L198.044 89.7286L233.988 90.1044ZM198.144 66.3401L186.063 86.7235L196.347 85.6898L214.418 52.7207L198.144 66.3401Z" fill="black"/>
<path fill-rule="evenodd" clip-rule="evenodd" d="M293.791 69.328C293.223 69.328 292.276 69.5173 291.842 70.2748L285.804 80.7349L289.09 80.7572L293.78 72.6364L296.008 76.4684L291.73 76.4573L293.401 79.2979L297.657 79.3202L298.459 80.7349H301.756L295.696 70.2414C295.083 69.2834 294.281 69.328 293.791 69.328ZM307.237 69.328C304.207 69.328 301.756 71.8789 301.756 75.0314C301.756 78.1839 304.207 80.7349 307.237 80.7349L313.163 80.7795L316.015 77.8832L307.203 77.9054C305.599 77.8832 304.641 76.357 304.608 75.0426C304.563 73.6278 305.633 72.1463 307.226 72.124L313.163 72.202L316.015 69.328H307.237ZM258.98 69.3502C255.961 69.3502 253.277 72.0572 253.277 75.2097C253.277 78.3622 255.961 80.7572 258.98 80.7572H264.684C267.702 80.7572 270.387 78.2062 270.387 75.0537C270.387 71.9012 267.702 69.3502 264.684 69.3502H258.98ZM273.239 69.3502V80.7572H276.09V72.202H279.744C280.825 72.1908 281.794 72.5919 281.794 73.6167C281.794 74.6304 280.847 75.0648 279.878 75.0648L276.09 75.0537L280.925 80.7795L284.646 80.7572L281.727 77.3262C281.727 77.3262 284.623 76.4796 284.646 73.5721C284.657 71.166 283.198 69.3725 280.747 69.3502H273.239ZM321.718 69.3502H318.866V79.6655C318.866 79.944 318.967 80.2225 319.178 80.4341C319.368 80.6346 319.646 80.7572 319.936 80.7572L327.422 80.7795L330.273 77.9054H321.718V69.3502ZM335.409 69.3725C332.379 69.3725 329.928 71.9235 329.928 75.076C329.928 78.2285 332.379 80.7795 335.409 80.7795H341.68L344.532 77.9277H335.364C334.674 78.0057 333.37 77.4264 333.047 76.2011L341.68 76.3013L344.499 73.7058C344.499 73.7058 336.01 73.7504 333.092 73.7615C333.359 72.447 335.364 72.2243 335.364 72.2243H341.68L344.532 69.3725H335.409ZM258.98 72.202H264.684C265.252 72.2131 267.279 73.0709 267.268 75.0426C267.257 77.1814 265.408 77.8943 264.684 77.9054H258.98C257.677 77.8943 256.351 76.3905 256.351 75.0983C256.351 73.4942 257.866 72.1797 258.98 72.202Z" fill="black"/>
</g>
</svg>
